X: 1
T: LeMa'an Achai [Gm]
C: Shlomo Carlebach
Z: John Chambers <jc:trillian.mit.edu>
R: waltz
M: 3/4
L: 1/4
K: Gm
|: z D \
| "Gm"D =C D | B A G | "Cm"E3- | E2 E \
| E D C | B A G | "Gm"D3- | D2 D |
| "Gm"D =C D | B A G | "Cm"F E D | C3 \
| "D7"D3 | A2 B | "Gm"G3- | G :|
|: G A \
| "Gm"B2 B | B A G | B B B | B A G \
| "Cm"c2 c | d2 c | "Gm"B3- | B G A |
| "Gm"B2 B | B A G | B B B | B A G \
| "D7"A2 c | B2 A | "Gm"G3- | G :|
